X:1
T:Pavlovic, LMD
T:Pavlovic, LMD
T:Grace Weiser Davis, 1894
T:Public Domain Courtesy of the Cyber Hymnal™
C:Grace Weiser Davis, 1894
Z:Public Domain
Z:Courtesy of the Cyber Hymnal™
%%score ( 1 2 ) ( 3 4 )
L:1/8
Q:1/4=88
M:4/8
K:A
V:1 treble 
V:2 treble 
V:3 bass 
V:4 bass 
V:1
 [CE] | [CA]2 [EA] (BA)[EB] | (ce)[Ec] (BA)[EB] | ([Ec]>[DB])[CA] ([CA][DF])[CE] | %4
 ([CE][DF])[EA] [EB]2 [CE] | [CA]2 [EA] (BA)[EB] | (ce)[Ec] (BA)[EB] | %7
 ([Ec]>[DB])[CA] ([CA][DF])[CE] | (EF)[DG] [CA]2 [Ac] | [Ae]2 [Af] (ec)A | [Ae]2 [Af] (ec)A | %11
 eAAecA x | [Be]2 ([Bd]/[Ac]/) !fermata![GB]2 [CE] | [CA]2 [EA] (BA)[EB] | (ce)[Ec] (BA)[EB] | %15
 ([Ec]>[DB])[CA] ([CA][DF])[CE] | (EF)[DG] [CA]2 |] %17
V:2
 x | x3 E2 x | E2 E2 x2 | x6 | x6 | x3 E2 x | E2 E2 x2 | x6 | D2 x4 | x3 A2 A | x3 A2 A | %11
 (eA)A (ec)A x | x6 | x3 E2 x | E2 E2 x2 | x6 | D2 x3 |] %17
V:3
 [A,,A,] | [A,,E,]2 [C,A,] (G,F,)[E,G,] | (A,C)A, (G,F,)[E,G,] | %3
 [A,,A,]2 [A,,A,] [A,,A,]2 [A,,A,] | [A,,A,]2 [C,A,] [E,G,]2 [A,,A,] | %5
 [A,,E,]2 [C,A,] (G,F,)[E,G,] | (A,C)A, G,F,[E,G,] | [A,,A,]2 [A,,A,] [A,,A,]2 [A,,A,] | %8
 (G,A,)[E,B,] [A,,A,]2 [A,E] | [A,C]2 [A,D] (CE)[A,C] | [A,C]2 [A,D] (CE)[A,C] | (EC)A,A, x3 | %12
 [G,E]2 ([A,E] !fermata![E,E]2) [A,,A,] | [A,,E,]2 [C,A,] (G,F,)[E,G,] | (A,C)A, (G,F,)[E,G,] | %15
 [A,,A,]2 [A,,A,] [A,,A,]2 [A,,A,] | (G,A,)[E,B,] [A,,A,]2 |] %17
V:4
 x | x3 E,2 x | A,2 A, E,2 x | x6 | x6 | x3 E,2 x | A,2 A, E,2 x | x6 | E,2 x4 | x3 A,2 x | %10
 x3 A,2 x | x2 A, (EC) x A, | x6 | x3 E,2 x | A,2 A, E,2 x | x6 | E,2 x3 |] %17

